Numix-Circle/48x48/apps/chrome-jfbadlndcminbkfojhlimnkgaackjmdo-Default.svg

<?xml version="1.0" encoding="UTF-8" standalone="no"?>
<svg
   xmlns:dc="http://purl.org/dc/elements/1.1/"
   xmlns:cc="http://creativecommons.org/ns#"
   xmlns:rdf="http://www.w3.org/1999/02/22-rdf-syntax-ns#"
   xmlns:svg="http://www.w3.org/2000/svg"
   xmlns="http://www.w3.org/2000/svg"
   xmlns:sodipodi="http://sodipodi.sourceforge.net/DTD/sodipodi-0.dtd"
   xmlns:inkscape="http://www.inkscape.org/namespaces/inkscape"
   viewBox="0 0 48 48"
   id="svg2"
   version="1.1"
   inkscape:version="0.48.4 r9939"
   width="100%"
   height="100%"
   sodipodi:docname="chrome-jfbadlndcminbkfojhlimnkgaackjmdo-Default.svg">
  <metadata
     id="metadata65">
    <rdf:RDF>
      <cc:Work
         rdf:about="">
        <dc:format>image/svg+xml</dc:format>
        <dc:type
           rdf:resource="http://purl.org/dc/dcmitype/StillImage" />
      </cc:Work>
    </rdf:RDF>
  </metadata>
  <sodipodi:namedview
     pagecolor="#ffffff"
     bordercolor="#666666"
     borderopacity="1"
     objecttolerance="10"
     gridtolerance="10"
     guidetolerance="10"
     inkscape:pageopacity="0"
     inkscape:pageshadow="2"
     inkscape:window-width="1280"
     inkscape:window-height="960"
     id="namedview63"
     showgrid="false"
     inkscape:zoom="3.4766083"
     inkscape:cx="-91.339231"
     inkscape:cy="28.763227"
     inkscape:window-x="0"
     inkscape:window-y="0"
     inkscape:window-maximized="1"
     inkscape:current-layer="svg2" />
  <defs
     id="defs4">
    <linearGradient
       id="linearGradient3764"
       x1="1"
       x2="47"
       gradientUnits="userSpaceOnUse"
       gradientTransform="matrix(0,-1,1,0,-1.5e-6,47.999998)">
      <stop
         stop-color="#e4e4e4"
         stop-opacity="1"
         id="stop7" />
      <stop
         offset="1"
         stop-color="#eee"
         stop-opacity="1"
         id="stop9" />
    </linearGradient>
    <clipPath
       id="clipPath-153838975">
      <g
         transform="translate(0,-1004.3622)"
         id="g12">
        <path
           d="m -24 13 c 0 1.105 -0.672 2 -1.5 2 -0.828 0 -1.5 -0.895 -1.5 -2 0 -1.105 0.672 -2 1.5 -2 0.828 0 1.5 0.895 1.5 2 z"
           transform="matrix(15.333333,0,0,11.5,414.99999,878.8622)"
           fill="#1890d0"
           id="path14" />
      </g>
    </clipPath>
    <clipPath
       id="clipPath-164420028">
      <g
         transform="translate(0,-1004.3622)"
         id="g17">
        <path
           d="m -24 13 c 0 1.105 -0.672 2 -1.5 2 -0.828 0 -1.5 -0.895 -1.5 -2 0 -1.105 0.672 -2 1.5 -2 0.828 0 1.5 0.895 1.5 2 z"
           transform="matrix(15.333333,0,0,11.5,414.99999,878.8622)"
           fill="#1890d0"
           id="path19" />
      </g>
    </clipPath>
  </defs>
  <g
     id="g21">
    <path
       d="m 36.31 5 c 5.859 4.062 9.688 10.831 9.688 18.5 c 0 12.426 -10.07 22.5 -22.5 22.5 c -7.669 0 -14.438 -3.828 -18.5 -9.688 c 1.037 1.822 2.306 3.499 3.781 4.969 c 4.085 3.712 9.514 5.969 15.469 5.969 c 12.703 0 23 -10.298 23 -23 c 0 -5.954 -2.256 -11.384 -5.969 -15.469 c -1.469 -1.475 -3.147 -2.744 -4.969 -3.781 z m 4.969 3.781 c 3.854 4.113 6.219 9.637 6.219 15.719 c 0 12.703 -10.297 23 -23 23 c -6.081 0 -11.606 -2.364 -15.719 -6.219 c 4.16 4.144 9.883 6.719 16.219 6.719 c 12.703 0 23 -10.298 23 -23 c 0 -6.335 -2.575 -12.06 -6.719 -16.219 z"
       opacity="0.05"
       id="path23" />
    <path
       d="m 41.28 8.781 c 3.712 4.085 5.969 9.514 5.969 15.469 c 0 12.703 -10.297 23 -23 23 c -5.954 0 -11.384 -2.256 -15.469 -5.969 c 4.113 3.854 9.637 6.219 15.719 6.219 c 12.703 0 23 -10.298 23 -23 c 0 -6.081 -2.364 -11.606 -6.219 -15.719 z"
       opacity="0.1"
       id="path25" />
    <path
       d="m 31.25 2.375 c 8.615 3.154 14.75 11.417 14.75 21.13 c 0 12.426 -10.07 22.5 -22.5 22.5 c -9.708 0 -17.971 -6.135 -21.12 -14.75 a 23 23 0 0 0 44.875 -7 a 23 23 0 0 0 -16 -21.875 z"
       opacity="0.2"
       id="path27" />
  </g>
  <g
     id="g33" />
  <path
     style="fill:#ffe567;fill-opacity:1;stroke:none"
     d="M 24 1 C 16.441768 1 9.7238297 4.652351 5.53125 10.28125 C 5.5281432 10.290767 5.5343453 10.30298 5.53125 10.3125 C 5.0640816 11.749298 4.7203538 13.229349 4.53125 14.71875 C 3.1877836 17.530526 2.4375 20.675927 2.4375 24 C 2.4375 35.355793 11.202646 44.661012 22.34375 45.5 C 21.039396 45.897189 19.708569 46.172275 18.375 46.3125 C 20.17503 46.764945 22.059592 47 24 47 C 31.558232 47 38.27617 43.347649 42.46875 37.71875 C 42.471858 37.709233 42.465654 37.69702 42.46875 37.6875 C 42.936027 36.250703 43.279889 34.770651 43.46875 33.28125 C 44.812216 30.469474 45.5625 27.324073 45.5625 24 C 45.5625 12.644207 36.797354 3.3389882 25.65625 2.5 C 26.960604 2.1028114 28.291431 1.8277254 29.625 1.6875 C 27.82497 1.2350547 25.940408 1 24 1 z M 45.78125 16.65625 C 45.946955 17.148849 46.117367 17.649394 46.25 18.15625 C 46.11674 17.647441 45.947848 17.150665 45.78125 16.65625 z M 1.3125 20.21875 C 1.2424382 20.641425 1.2029279 21.069874 1.15625 21.5 C 1.2022252 21.073695 1.2436308 20.637678 1.3125 20.21875 z M 46.90625 22.09375 C 46.957705 22.721688 47 23.358827 47 24 C 47 23.356173 46.95813 22.724192 46.90625 22.09375 z M 1 24 C 1 24.643827 1.0418702 25.275808 1.09375 25.90625 C 1.0422947 25.278312 1 24.641173 1 24 z M 46.84375 26.5 C 46.797775 26.926305 46.756369 27.362322 46.6875 27.78125 C 46.757562 27.358575 46.797072 26.930126 46.84375 26.5 z M 1.75 29.84375 C 1.8832603 30.352559 2.0521525 30.849335 2.21875 31.34375 C 2.0530452 30.851151 1.8826331 30.350606 1.75 29.84375 z "
     id="path3000" />
  <path
     style="fill:#000000;fill-opacity:1;fill-rule:evenodd;stroke:none;opacity:0.1"
     d="M 6.21875 9.4375 C 5.9682425 9.7428688 5.7349024 10.056964 5.5 10.375 C 4.7596129 12.673307 4.3698892 15.059623 4.375 17.46875 C 4.500665 14.719412 5.1602157 12.001653 6.21875 9.4375 z M 43.46875 11.8125 C 43.666859 12.128213 43.879543 12.424231 44.0625 12.75 C 43.879776 12.425955 43.666533 12.12654 43.46875 11.8125 z M 27.8125 12.4375 C 27.536813 12.449164 27.248531 12.469375 26.96875 12.5 C 22.006295 13.041716 18.401209 16.636087 18.59375 21.75 C 18.864323 17.159148 22.32775 14.006625 26.96875 13.5 C 35.92175 12.52 42.8435 21.41025 43.5625 29.78125 C 43.607813 30.312423 43.620662 30.845326 43.625 31.375 C 43.656721 30.516218 43.636178 29.644935 43.5625 28.78125 C 42.865969 20.671844 36.358786 12.075909 27.8125 12.4375 z M 44.21875 13.0625 C 44.444981 13.480111 44.643111 13.911074 44.84375 14.34375 C 44.642082 13.910388 44.446201 13.480651 44.21875 13.0625 z M 2 17.28125 C 1.8890116 17.64325 1.7807919 18.005604 1.6875 18.375 C 1.7807688 18.002405 1.8888006 17.646353 2 17.28125 z M 12.4375 17.78125 C 12.346348 22.326328 14.81888 26.695424 17.6875 28.34375 C 21.1755 29.96075 23.546 26.715 24 25 C 23.850814 25.068288 23.66858 25.152792 23.46875 25.21875 C 23.46615 25.223174 23.440116 25.214324 23.4375 25.21875 C 22.469211 26.856934 20.439451 28.619526 17.6875 27.34375 C 15.029739 25.816584 12.695264 21.954139 12.4375 17.78125 z M 24 25 C 25.254 24.426 28.60475 23.52275 29.34375 25.96875 C 29.392063 26.32425 29.424036 26.687418 29.4375 27.03125 C 29.477307 26.369134 29.440375 25.67975 29.34375 24.96875 C 28.697125 22.8285 26.05404 23.257269 24.5625 23.78125 C 24.559884 23.785676 24.53385 23.776826 24.53125 23.78125 C 24.276441 24.214812 24.094837 24.641751 24 25 z M 1.65625 18.5 C 1.516783 19.065691 1.4090287 19.637287 1.3125 20.21875 C 1.4080829 19.637323 1.5179996 19.06576 1.65625 18.5 z M 46.65625 20.15625 C 46.759373 20.767602 46.852369 21.373305 46.90625 22 C 46.852626 21.379488 46.758308 20.761496 46.65625 20.15625 z M 46.90625 22 C 46.962824 22.658013 47 23.327366 47 24 C 47 23.3259 46.963211 22.65913 46.90625 22 z M 1 24 C 1 24.671478 1.03731 25.343229 1.09375 26 C 1.0371761 25.341987 1 24.672634 1 24 z M 1.09375 26 C 1.1504495 26.65979 1.2324559 27.294898 1.34375 27.9375 C 1.2329456 27.296457 1.1503239 26.658013 1.09375 26 z M 1.78125 30 C 1.8700513 30.32852 1.9909097 30.646254 2.09375 30.96875 C 1.9917402 30.64732 1.8693479 30.327369 1.78125 30 z M 35.5625 31.21875 C 35.516509 33.511998 34.840787 35.841821 33.1875 37.90625 C 28.93215 43.215733 23.770944 45.732661 18.46875 46.3125 C 19.359204 46.532933 20.259616 46.698994 21.1875 46.8125 C 25.519884 45.76218 29.662118 43.304939 33.1875 38.90625 C 35.081643 36.541069 35.723325 33.822313 35.5625 31.21875 z M 4.09375 35.5 C 4.2917141 35.840904 4.5040369 36.170503 4.71875 36.5 C 4.5030324 36.168095 4.2925202 35.843428 4.09375 35.5 z "
     id="use3051" />
  <path
     style="fill:#d64936;fill-opacity:1;fill-rule:evenodd;stroke:none"
     d="M 29.625 1.6875 C 24.290724 2.2484016 19.092329 4.7537226 14.8125 10.09375 C 9.8825 16.24975 13.3715 24.86375 17.6875 27.34375 C 21.1755 28.96075 23.546 25.715 24 24 C 22.746 24.574 19.4265 25.2585 18.6875 22.8125 C 17.9105 17.1285 21.66475 13.079 26.96875 12.5 C 35.92175 11.52 42.8435 20.41025 43.5625 28.78125 C 43.821296 31.814964 43.4099 34.836554 42.46875 37.71875 C 45.322322 33.887583 47 29.144318 47 24 C 47 13.237859 39.608559 4.1969107 29.625 1.6875 z M 24 24 C 25.254 23.426 28.60475 22.52275 29.34375 24.96875 C 30.11675 30.65675 26.33425 34.922 21.03125 35.5 C 12.07425 36.48 5.1525 27.58975 4.4375 19.21875 C 4.1769728 16.185036 4.5903324 13.163446 5.53125 10.28125 C 2.6776775 14.112417 1 18.855682 1 24 C 1 34.762141 8.3914405 43.803089 18.375 46.3125 C 23.709276 45.751598 28.907671 43.246277 33.1875 37.90625 C 38.1175 31.75025 34.6285 23.13625 30.3125 20.65625 C 26.8245 19.03925 24.454 22.285 24 24 z "
     id="path57" />
  <g
     id="g59">
    <path
       d="m 40.03 7.531 c 3.712 4.084 5.969 9.514 5.969 15.469 0 12.703 -10.297 23 -23 23 c -5.954 0 -11.384 -2.256 -15.469 -5.969 4.178 4.291 10.01 6.969 16.469 6.969 c 12.703 0 23 -10.298 23 -23 0 -6.462 -2.677 -12.291 -6.969 -16.469 z"
       opacity="0.1"
       id="path61" />
  </g>
</svg>

<svg xmlns="http://www.w3.org/2000/svg" viewBox="0 0 48 48"><defs><clipPath><g transform="translate(0,-1004.3622)"><path d="m -24 13 c 0 1.105 -0.672 2 -1.5 2 -0.828 0 -1.5 -0.895 -1.5 -2 0 -1.105 0.672 -2 1.5 -2 0.828 0 1.5 0.895 1.5 2 z" transform="matrix(15.333333,0,0,11.5,414.99999,878.8622)" fill="#1890d0"/></g></clipPath><clipPath><g transform="translate(0,-1004.3622)"><path d="m -24 13 c 0 1.105 -0.672 2 -1.5 2 -0.828 0 -1.5 -0.895 -1.5 -2 0 -1.105 0.672 -2 1.5 -2 0.828 0 1.5 0.895 1.5 2 z" transform="matrix(15.333333,0,0,11.5,414.99999,878.8622)" fill="#1890d0"/></g></clipPath></defs><g><path d="m 36.31 5 c 5.859 4.062 9.688 10.831 9.688 18.5 c 0 12.426 -10.07 22.5 -22.5 22.5 c -7.669 0 -14.438 -3.828 -18.5 -9.688 c 1.037 1.822 2.306 3.499 3.781 4.969 c 4.085 3.712 9.514 5.969 15.469 5.969 c 12.703 0 23 -10.298 23 -23 c 0 -5.954 -2.256 -11.384 -5.969 -15.469 c -1.469 -1.475 -3.147 -2.744 -4.969 -3.781 z m 4.969 3.781 c 3.854 4.113 6.219 9.637 6.219 15.719 c 0 12.703 -10.297 23 -23 23 c -6.081 0 -11.606 -2.364 -15.719 -6.219 c 4.16 4.144 9.883 6.719 16.219 6.719 c 12.703 0 23 -10.298 23 -23 c 0 -6.335 -2.575 -12.06 -6.719 -16.219 z" opacity="0.05"/><path d="m 41.28 8.781 c 3.712 4.085 5.969 9.514 5.969 15.469 c 0 12.703 -10.297 23 -23 23 c -5.954 0 -11.384 -2.256 -15.469 -5.969 c 4.113 3.854 9.637 6.219 15.719 6.219 c 12.703 0 23 -10.298 23 -23 c 0 -6.081 -2.364 -11.606 -6.219 -15.719 z" opacity="0.1"/><path d="m 31.25 2.375 c 8.615 3.154 14.75 11.417 14.75 21.13 c 0 12.426 -10.07 22.5 -22.5 22.5 c -9.708 0 -17.971 -6.135 -21.12 -14.75 a 23 23 0 0 0 44.875 -7 a 23 23 0 0 0 -16 -21.875 z" opacity="0.2"/></g><path d="m 24 1 c -7.558 0 -14.276 3.652 -18.469 9.281 c -0.003 0.01 0.003 0.022 0 0.031 c -0.467 1.437 -0.811 2.917 -1 4.406 c -1.343 2.812 -2.094 5.957 -2.094 9.281 c 0 11.356 8.765 20.661 19.906 21.5 c -1.304 0.397 -2.635 0.672 -3.969 0.813 c 1.8 0.452 3.685 0.688 5.625 0.688 c 7.558 0 14.276 -3.652 18.469 -9.281 c 0.003 -0.01 -0.003 -0.022 0 -0.031 c 0.467 -1.437 0.811 -2.917 1 -4.406 c 1.343 -2.812 2.094 -5.957 2.094 -9.281 c 0 -11.356 -8.765 -20.661 -19.906 -21.5 c 1.304 -0.397 2.635 -0.672 3.969 -0.813 c -1.8 -0.452 -3.685 -0.688 -5.625 -0.688 z m 21.781 15.656 c 0.166 0.493 0.336 0.993 0.469 1.5 c -0.133 -0.509 -0.302 -1.01 -0.469 -1.5 z m -44.47 3.563 c -0.07 0.423 -0.11 0.851 -0.156 1.281 c 0.046 -0.426 0.087 -0.862 0.156 -1.281 z m 45.594 1.875 c 0.051 0.628 0.094 1.265 0.094 1.906 c 0 -0.644 -0.042 -1.276 -0.094 -1.906 z m -45.906 1.906 c 0 0.644 0.042 1.276 0.094 1.906 c -0.051 -0.628 -0.094 -1.265 -0.094 -1.906 z m 45.844 2.5 c -0.046 0.426 -0.087 0.862 -0.156 1.281 c 0.07 -0.423 0.11 -0.851 0.156 -1.281 z m -45.09 3.344 c 0.133 0.509 0.302 1.01 0.469 1.5 c -0.166 -0.493 -0.336 -0.993 -0.469 -1.5 z" fill="#ffe567" stroke="none" fill-opacity="1"/><path d="m 6.219 9.438 c -0.251 0.305 -0.484 0.619 -0.719 0.938 c -0.74 2.298 -1.13 4.685 -1.125 7.094 c 0.126 -2.749 0.785 -5.467 1.844 -8.03 z m 37.25 2.375 c 0.198 0.316 0.411 0.612 0.594 0.938 c -0.183 -0.324 -0.396 -0.623 -0.594 -0.938 z m -15.656 0.625 c -0.276 0.012 -0.564 0.032 -0.844 0.063 c -4.962 0.542 -8.568 4.136 -8.375 9.25 c 0.271 -4.591 3.734 -7.743 8.375 -8.25 c 8.953 -0.98 15.875 7.91 16.594 16.281 c 0.045 0.531 0.058 1.064 0.063 1.594 c 0.032 -0.859 0.011 -1.73 -0.063 -2.594 c -0.697 -8.109 -7.204 -16.705 -15.75 -16.344 z m 16.406 0.625 c 0.226 0.418 0.424 0.849 0.625 1.281 c -0.202 -0.433 -0.398 -0.863 -0.625 -1.281 z m -42.22 4.219 c -0.111 0.362 -0.219 0.724 -0.313 1.094 c 0.093 -0.373 0.201 -0.729 0.313 -1.094 z m 10.438 0.5 c -0.091 4.545 2.381 8.914 5.25 10.563 c 3.488 1.617 5.858 -1.629 6.313 -3.344 c -0.149 0.068 -0.331 0.153 -0.531 0.219 c -0.003 0.004 -0.029 -0.004 -0.031 0 c -0.968 1.638 -2.998 3.401 -5.75 2.125 c -2.658 -1.527 -4.992 -5.39 -5.25 -9.563 z m 11.563 7.219 c 1.254 -0.574 4.605 -1.477 5.344 0.969 c 0.048 0.355 0.08 0.719 0.094 1.063 c 0.04 -0.662 0.003 -1.352 -0.094 -2.063 c -0.647 -2.14 -3.29 -1.711 -4.781 -1.188 c -0.003 0.004 -0.029 -0.004 -0.031 0 c -0.255 0.434 -0.436 0.861 -0.531 1.219 z m -22.344 -6.5 c -0.139 0.566 -0.247 1.137 -0.344 1.719 c 0.096 -0.581 0.205 -1.153 0.344 -1.719 z m 45 1.656 c 0.103 0.611 0.196 1.217 0.25 1.844 c -0.054 -0.621 -0.148 -1.239 -0.25 -1.844 z m 0.25 1.844 c 0.057 0.658 0.094 1.327 0.094 2 c 0 -0.674 -0.037 -1.341 -0.094 -2 z m -45.906 2 c 0 0.671 0.037 1.343 0.094 2 c -0.057 -0.658 -0.094 -1.327 -0.094 -2 z m 0.094 2 c 0.057 0.66 0.139 1.295 0.25 1.938 c -0.111 -0.641 -0.193 -1.279 -0.25 -1.938 z m 0.688 4 c 0.089 0.329 0.21 0.646 0.313 0.969 c -0.102 -0.321 -0.224 -0.641 -0.313 -0.969 z m 33.781 1.219 c -0.046 2.293 -0.722 4.623 -2.375 6.688 c -4.255 5.309 -9.417 7.826 -14.719 8.406 c 0.89 0.22 1.791 0.386 2.719 0.5 c 4.332 -1.05 8.475 -3.508 12 -7.906 c 1.894 -2.365 2.536 -5.084 2.375 -7.688 z m -31.469 4.281 c 0.198 0.341 0.41 0.671 0.625 1 c -0.216 -0.332 -0.426 -0.657 -0.625 -1 z" opacity="0.1" fill="#000" fill-rule="evenodd" stroke="none" fill-opacity="1"/><path d="m 29.625 1.688 c -5.334 0.561 -10.533 3.066 -14.813 8.406 c -4.93 6.156 -1.441 14.77 2.875 17.25 c 3.488 1.617 5.858 -1.629 6.313 -3.344 c -1.254 0.574 -4.573 1.259 -5.313 -1.188 c -0.777 -5.684 2.977 -9.734 8.281 -10.313 c 8.953 -0.98 15.875 7.91 16.594 16.281 c 0.259 3.034 -0.153 6.06 -1.094 8.938 c 2.854 -3.831 4.531 -8.574 4.531 -13.719 c 0 -10.762 -7.391 -19.803 -17.375 -22.313 z m -5.625 22.313 c 1.254 -0.574 4.605 -1.477 5.344 0.969 c 0.773 5.688 -3.01 9.953 -8.313 10.531 c -8.957 0.98 -15.879 -7.91 -16.594 -16.281 c -0.261 -3.034 0.153 -6.06 1.094 -8.938 c -2.854 3.831 -4.531 8.574 -4.531 13.719 c 0 10.762 7.391 19.803 17.375 22.313 c 5.334 -0.561 10.533 -3.066 14.813 -8.406 c 4.93 -6.156 1.441 -14.77 -2.875 -17.25 c -3.488 -1.617 -5.858 1.629 -6.313 3.344 z" fill="#d64936" fill-rule="evenodd" stroke="none" fill-opacity="1"/><g><path d="m 40.03 7.531 c 3.712 4.084 5.969 9.514 5.969 15.469 0 12.703 -10.297 23 -23 23 c -5.954 0 -11.384 -2.256 -15.469 -5.969 4.178 4.291 10.01 6.969 16.469 6.969 c 12.703 0 23 -10.298 23 -23 0 -6.462 -2.677 -12.291 -6.969 -16.469 z" opacity="0.1"/></g></svg>
